!!!COM: Beethoven
!!!OTL: 24 Variationen uber Venni Amore von V. Righini
!!!Variation: Variation 24 b
**function	**harm	**kern	**kern	**kern	**kern
*M2/4	*M2/4	*staff3	*staff4	*staff1	*staff2
*D:	*D:	*clefF4	*clefF4	*clefG2	*clefG2
*tb8	*	*k[f#c#]	*k[f#c#]	*k[f#c#]	*k[f#c#]
*	*	*M2/4	*M2/4	*M2/4	*M2/4
*	*	*D:	*D:	*D:	*D:
=	=	=-	=-	=-	=-
2T	2I	2r	8F#L	(8aL	2r
.	.	.	8AJ	8dd'J)	.
.	.	.	8DL	(8ddL	.
.	.	.	8AJ	8ff#'J)	.
=	=	=444	=444	=444	=444
4T	4V65	2r	8C#L	(8ff#L	2r
.	.	.	8AJ	8gg'J)	.
4T	4V2	.	8GGL	(8ggL	.
.	.	.	8AJ	8ccc#'J)	.
=	=	=445	=445	=445	=445
2T	2I6	2r	8FF#L	(8ccc#L	2r
.	.	.	8AJ	8ddd'J)	.
.	.	.	8DL	(8dddL	.
.	.	.	8AJ	8aa'J)	.
=	=	=446	=446	=446	=446
2T	2V65	2r	8C#L	(8aaL	2r
.	.	.	8AJ	8gg'J)	.
.	.	.	8GL	(8ggL	.
.	.	.	8AJ	8ee'J)	.
=	=	=447	=447	=447	=447
2T	2I	2r	8F#L	(8eeL	2r
.	.	.	8AJ	8dd'J)	.
.	.	.	8DL	(8ddL	.
.	.	.	8AJ	8a'J)	.
=	=	=448	=448	=448	=448
2T	2V7	2r	8C#L	(8aL	2r
.	.	.	8AJ	8g'J)	.
.	.	.	8AAL 8G	(8gL	.
.	.	.	8AJ	8e'J)	.
=	=	=449	=449	=449	=449
4T	4I	2r	8DL 8F#	(8eL	2r
.	.	.	8AJ	8d'J)	.
4D	4V7	.	8AAL 8G	(8f#L	.
.	.	.	8AJ	8e'J)	.
=	=	=450	=450	=450	=450
2T	2I	2r	8D'L	4d'	2r
.	.	.	8DDJ	.	.
.	.	.	8DDL	4r	.
.	.	.	8DDJ	.	.
=	=	=451:|!	=451:|!	=451:|!	=451:|!
*-	*-	*-	*-	*-	*-
